src/assets/images/edit-profile-bg.svg

<?xml version="1.0" encoding="UTF-8"?>
<svg width="375px" height="189px" viewBox="0 0 375 189" version="1.1" xmlns="http://www.w3.org/2000/svg" xmlns:xlink="http://www.w3.org/1999/xlink">
    <!-- Generator: Sketch 53.2 (72643) - https://sketchapp.com -->
    <title>Grass</title>
    <desc>Created with Sketch.</desc>
    <defs>
        <rect id="path-1" x="0" y="0" width="375" height="189"></rect>
        <polygon id="path-3" points="0.159057085 0.7649125 150.661361 0.7649125 150.661361 142.82125 0.159057085 142.82125"></polygon>
        <polygon id="path-5" points="0.368042904 0.244487356 164.680309 0.244487356 164.680309 198.339343 0.368042904 198.339343"></polygon>
        <polygon id="path-7" points="0.111313198 0.244760526 125.967526 0.244760526 125.967526 198.339343 0.111313198 198.339343"></polygon>
        <polygon id="path-9" points="0.0379246337 0.719530387 182.917159 0.719530387 182.917159 232.485622 0.0379246337 232.485622"></polygon>
        <polygon id="path-11" points="0.800609267 0.719530387 156.629538 0.719530387 156.629538 232.485622 0.800609267 232.485622"></polygon>
        <polygon id="path-13" points="0.368042904 0.244487356 164.680309 0.244487356 164.680309 198.339343 0.368042904 198.339343"></polygon>
    </defs>
    <g id="Page-1" stroke="none" stroke-width="1" fill="none" fill-rule="evenodd">
        <g id="Grass">
            <mask id="mask-2" fill="white">
                <use xlink:href="#path-1"></use>
            </mask>
            <use id="Mask" fill="#FFFFFF" xlink:href="#path-1"></use>
            <g id="Group-11" mask="url(#mask-2)">
                <g transform="translate(-206.000000, -19.000000)" id="Grass">
                    <g transform="translate(503.500000, 128.000000) scale(-1, 1) translate(-503.500000, -128.000000) translate(325.000000, 0.000000)">
                        <g id="Group-3" transform="translate(206.000000, 113.000000)">
                            <mask id="mask-4" fill="white">
                                <use xlink:href="#path-3"></use>
                            </mask>
                            <g id="Clip-2"></g>
                            <path d="M141.412713,113.963163 C155.018892,98.0805375 153.425303,73.9561625 137.850731,60.0796625 C130.982928,53.9567875 122.157517,50.6045375 113.035499,50.6485375 C112.357347,50.6485375 111.725035,50.8176625 111.054972,50.8479125 C112.314204,47.0749125 112.982919,43.1217875 113.035499,39.1370375 C113.035499,17.9441625 96.1895616,0.7649125 75.4095348,0.7649125 C54.6308563,0.7649125 37.7849188,17.9441625 37.7849188,39.1370375 C37.8374991,43.1217875 38.5062134,47.0749125 39.7627491,50.8479125 C39.0940348,50.8479125 38.4630705,50.6485375 37.7849188,50.6485375 C17.106008,50.5481625 0.26141875,67.5637875 0.160302679,88.6535375 C0.117159821,97.9567875 3.40545446,106.957538 9.40770446,113.963163 C-3.49740268,128.964413 -2.82059911,151.594163 10.9581509,165.766288 C-3.58773304,180.900913 -3.34909911,205.197163 11.4906955,220.032038 C18.5135438,227.051413 27.9510438,230.988038 37.7849188,231.000413 L113.035499,231.000413 C133.814178,230.977038 150.642588,213.777163 150.616972,192.584288 C150.604838,182.555038 146.744901,172.928663 139.862267,165.766288 C153.641017,151.594163 154.317821,128.964413 141.412713,113.963163" id="Fill-1" fill="#005960" mask="url(#mask-4)"></path>
                        </g>
                        <g id="Group-16">
                            <g id="Group-6" transform="translate(125.500175, 34.146279)">
                                <mask id="mask-6" fill="white">
                                    <use xlink:href="#path-5"></use>
                                </mask>
                                <g id="Clip-5"></g>
                                <path d="M0.368042904,180.318303 C0.368042904,180.318303 20.7877398,35.9177877 116.884042,0.244487356 C210.709064,80.2779014 137.463343,198.615245 137.463343,198.615245 L33.9311549,272.905255 L0.368042904,180.318303 Z" id="Fill-4" fill="#59C09C" mask="url(#mask-6)"></path>
                            </g>
                            <g id="Group-9" transform="translate(158.239351, 34.146279)">
                                <mask id="mask-8" fill="white">
                                    <use xlink:href="#path-7"></use>
                                </mask>
                                <g id="Clip-8"></g>
                                <path d="M1.80147316,78.7211043 L43.176971,128.38072 L81.8896825,1.13256377 C82.6413194,0.837539926 83.3861357,0.527491715 84.1445933,0.244760526 C84.5156373,0.560272142 84.8593986,0.881247163 85.2236219,1.19675878 L64.4888105,69.3499995 L119.126403,44.5119963 C119.373311,45.0255564 119.605213,45.5404823 119.846665,46.0540423 L120.470073,47.4267227 L63.2447218,73.4407237 L28.6898856,187.018076 L125.967526,146.486443 C125.623765,147.808587 125.273183,149.119804 124.910324,150.40507 L27.477172,191.000898 L2.93915953,271.648945 L1.19170601,272.905528 L0.111313198,269.925241 L42.0583825,132.053494 L0.169970889,81.7751475 C0.706074896,80.7562225 1.2503637,79.7386634 1.80147316,78.7211043" id="Fill-7" fill="#006769" mask="url(#mask-8)"></path>
                            </g>
                            <g id="Group-12">
                                <mask id="mask-10" fill="white">
                                    <use xlink:href="#path-9"></use>
                                </mask>
                                <g id="Clip-11"></g>
                                <path d="M41.4851741,243.27011 C41.4851741,243.27011 -44.0254613,98.6155458 30.6007622,0.719530387 C233.786909,59.9892752 175.026909,259.914372 175.026909,259.914372 L41.4851741,243.27011 Z" id="Fill-10" fill="#004966" mask="url(#mask-10)"></path>
                            </g>
                            <g id="Group-15">
                                <mask id="mask-12" fill="white">
                                    <use xlink:href="#path-11"></use>
                                </mask>
                                <g id="Clip-14"></g>
                                <path d="M30.6000801,0.719530387 C31.3067007,0.92577391 31.9955875,1.14021254 32.6994798,1.34918777 L87.7340347,191.587668 L154.516497,87.7297121 C155.236759,88.9029783 155.939287,90.0776103 156.629538,91.2577057 L89.0940746,196.287562 L104.973939,251.182485 L100.994765,250.688047 L69.3359819,141.254687 L69.3359819,141.256053 L1.17165326,119.619605 C1.03524003,118.293363 0.911103986,116.96439 0.800609267,115.631319 L68.1055345,136.991866 L29.2263989,2.59484402 C29.6861114,1.97065004 30.1239979,1.34099266 30.6000801,0.719530387" id="Fill-13" fill="#59C09C" mask="url(#mask-12)"></path>
                            </g>
                        </g>
                    </g>
                    <g transform="translate(178.500000, 130.000000) scale(-1, 1) translate(-178.500000, -130.000000) ">
                        <g id="Group-16">
                            <g id="Group-6" transform="translate(125.500175, 34.146279)">
                                <mask id="mask-14" fill="white">
                                    <use xlink:href="#path-13"></use>
                                </mask>
                                <g id="Clip-5"></g>
                                <path d="M0.368042904,180.318303 C0.368042904,180.318303 20.7877398,35.9177877 116.884042,0.244487356 C210.709064,80.2779014 137.463343,198.615245 137.463343,198.615245 L33.9311549,272.905255 L0.368042904,180.318303 Z" id="Fill-4" fill="#59C09C" mask="url(#mask-14)"></path>
                            </g>
                            <g id="Group-12" fill="#004966">
                                <path d="M41.4851741,243.27011 C41.4851741,243.27011 -44.0254613,98.6155458 30.6007622,0.719530387 C233.786909,59.9892752 175.026909,259.914372 175.026909,259.914372 L41.4851741,243.27011 Z" id="Fill-10"></path>
                            </g>
                            <g id="Group-15" fill="#59C09C">
                                <path d="M30.6000801,0.719530387 C31.3067007,0.92577391 31.9955875,1.14021254 32.6994798,1.34918777 L87.7340347,191.587668 L154.516497,87.7297121 C155.236759,88.9029783 155.939287,90.0776103 156.629538,91.2577057 L89.0940746,196.287562 L104.973939,251.182485 L100.994765,250.688047 L69.3359819,141.254687 L69.3359819,141.256053 L1.17165326,119.619605 C1.03524003,118.293363 0.911103986,116.96439 0.800609267,115.631319 L68.1055345,136.991866 L29.2263989,2.59484402 C29.6861114,1.97065004 30.1239979,1.34099266 30.6000801,0.719530387" id="Fill-13"></path>
                            </g>
                        </g>
                    </g>
                </g>
            </g>
        </g>
    </g>
</svg>

<svg xmlns="http://www.w3.org/2000/svg" xmlns:xlink="http://www.w3.org/1999/xlink" width="375" height="189" viewBox="0 0 375 189">
    <defs>
        <path id="a" d="M0 0c62.5 4.795 125 7.192 187.5 7.192S312.5 4.795 375 0v189H0V0z"/>
        <path id="c" d="M.16.765H150.66V142.82H.16z"/>
        <path id="e" d="M.368.244H164.68V198.34H.368z"/>
        <path id="g" d="M.111.245h125.857v198.094H.11z"/>
        <path id="i" d="M.038.72h182.88v231.766H.037z"/>
        <path id="k" d="M.8.72h155.83v231.766H.8z"/>
        <path id="m" d="M.368.244H164.68V198.34H.368z"/>
        <path id="o" d="M.038.72h182.88v231.766H.037z"/>
        <path id="q" d="M.8.72h155.83v231.766H.8z"/>
    </defs>
    <g fill="none" fill-rule="evenodd">
        <mask id="b" fill="#fff">
            <use xlink:href="#a"/>
        </mask>
        <use fill="#FFF" xlink:href="#a"/>
        <g mask="url(#b)">
            <g transform="matrix(-1 0 0 1 270 94)">
                <mask id="d" fill="#fff">
                    <use xlink:href="#c"/>
                </mask>
                <path fill="#005960" d="M141.413 113.963c13.606-15.882 12.012-40.007-3.562-53.883-6.868-6.123-15.693-9.475-24.816-9.431-.678 0-1.31.169-1.98.199a38.613 38.613 0 0 0 1.98-11.711C113.035 17.944 96.19.765 75.41.765s-37.625 17.18-37.625 38.372a38.693 38.693 0 0 0 1.978 11.71c-.669 0-1.3-.198-1.978-.198C17.106 50.549.26 67.564.16 88.654c-.043 9.303 3.245 18.304 9.248 25.31-12.905 15-12.229 37.63 1.55 51.802-14.546 15.135-14.307 39.431.533 54.266 7.023 7.02 16.46 10.956 26.294 10.968h75.25c20.78-.023 37.608-17.223 37.582-38.416-.012-10.029-3.872-19.655-10.755-26.818 13.779-14.172 14.456-36.802 1.55-51.803" mask="url(#d)"/>
            </g>
            <g transform="matrix(-1 0 0 1 350.5 15.146)">
                <mask id="f" fill="#fff">
                    <use xlink:href="#e"/>
                </mask>
                <path fill="#59C09C" d="M.368 180.318S20.788 35.918 116.884.244c93.825 80.034 20.58 198.371 20.58 198.371L33.93 272.905.368 180.318z" mask="url(#f)"/>
            </g>
            <g transform="matrix(-1 0 0 1 317.76 15.146)">
                <mask id="h" fill="#fff">
                    <use xlink:href="#g"/>
                </mask>
                <path fill="#006769" d="M1.801 78.721l41.376 49.66L81.89 1.133c.751-.295 1.496-.606 2.255-.888.37.315.714.636 1.079.952L64.489 69.35l54.637-24.838c.247.514.48 1.028.72 1.542l.624 1.373L63.245 73.44 28.69 187.018l97.278-40.532a195.798 195.798 0 0 1-1.058 3.92L27.477 191 2.94 271.649l-1.747 1.257-1.08-2.98 41.946-137.873L.17 81.775c.536-1.019 1.08-2.036 1.631-3.054" mask="url(#h)"/>
            </g>
            <g transform="matrix(-1 0 0 1 476 -19)">
                <mask id="j" fill="#fff">
                    <use xlink:href="#i"/>
                </mask>
                <path fill="#004966" d="M41.485 243.27S-44.025 98.616 30.601.72c203.186 59.27 144.426 259.194 144.426 259.194L41.485 243.27z" mask="url(#j)"/>
            </g>
            <g transform="matrix(-1 0 0 1 476 -19)">
                <mask id="l" fill="#fff">
                    <use xlink:href="#k"/>
                </mask>
                <path fill="#59C09C" d="M30.6.72c.707.206 1.396.42 2.1.63l55.034 190.238L154.516 87.73c.72 1.173 1.423 2.348 2.114 3.528l-67.536 105.03 15.88 54.894-3.98-.494-31.658-109.433v.001L1.172 119.62c-.137-1.327-.26-2.656-.371-3.989l67.305 21.36L29.226 2.596c.46-.624.898-1.254 1.374-1.875" mask="url(#l)"/>
            </g>
            <g>
                <g transform="matrix(-1 0 0 1 25.5 15.146)">
                    <mask id="n" fill="#fff">
                        <use xlink:href="#m"/>
                    </mask>
                    <path fill="#59C09C" d="M.368 180.318S20.788 35.918 116.884.244c93.825 80.034 20.58 198.371 20.58 198.371L33.93 272.905.368 180.318z" mask="url(#n)"/>
                </g>
                <g transform="matrix(-1 0 0 1 151 -19)">
                    <mask id="p" fill="#fff">
                        <use xlink:href="#o"/>
                    </mask>
                    <path fill="#004966" d="M41.485 243.27S-44.025 98.616 30.601.72c203.186 59.27 144.426 259.194 144.426 259.194L41.485 243.27z" mask="url(#p)"/>
                </g>
                <g transform="matrix(-1 0 0 1 151 -19)">
                    <mask id="r" fill="#fff">
                        <use xlink:href="#q"/>
                    </mask>
                    <path fill="#59C09C" d="M30.6.72c.707.206 1.396.42 2.1.63l55.034 190.238L154.516 87.73c.72 1.173 1.423 2.348 2.114 3.528l-67.536 105.03 15.88 54.894-3.98-.494-31.658-109.433v.001L1.172 119.62c-.137-1.327-.26-2.656-.371-3.989l67.305 21.36L29.226 2.596c.46-.624.898-1.254 1.374-1.875" mask="url(#r)"/>
                </g>
            </g>
        </g>
    </g>
</svg>
